X:16061
T:Stringers Hornpipe. JC.158
M:C|
L:1/8
Q:180
S:John Clare,Poet,Helpstone (1793-1864)
R:Hornpipe
O:England
A:Northamptonshire
N:
Z:P Headford
K:D
AG|FDFA d2d2|efge dcBA|BGG2AFF2|EFGA GFED|!
FDFAd2d2|efge dcBA|fefg afdf|gedc d2d2:|!
|:fdd2 ecc2|Bcde dcBA|BGG2AFF2|EFGA GFED|!
FDFA d2d2|efge dcBA|fefg afdf|gedc d2d2:|]
